src/assets/icons/verifications-n-security/email-verification.svg

<svg width="63" height="62" viewBox="0 0 63 62" fill="none" xmlns="http://www.w3.org/2000/svg">
<path fill-rule="evenodd" clip-rule="evenodd" d="M31.5 61C14.9315 61 1.5 47.5685 1.5 31C1.5 14.4315 14.9315 1 31.5 1C48.0685 1 61.5 14.4315 61.5 31C61.5 47.5685 48.0685 61 31.5 61ZM14.5217 28.3294C14.3904 20.4373 14.3162 15.9814 31.5 15.9814C48.6838 15.9814 48.6096 20.4373 48.4783 28.3294C48.4664 29.0456 48.454 29.7902 48.454 30.5623C48.454 31.0099 48.4562 31.4502 48.4583 31.8829C48.5006 40.4195 48.5282 45.9815 31.5 45.9815C14.4718 45.9815 14.4994 40.4195 14.5417 31.8829C14.5438 31.4502 14.546 31.0099 14.546 30.5623C14.546 29.7902 14.5336 29.0456 14.5217 28.3294Z" fill="#C1F5E6"/>
<path d="M14.5217 28.3294L15.5215 28.3127L14.5217 28.3294ZM48.4783 28.3294L49.4782 28.346V28.346L48.4783 28.3294ZM48.4583 31.8829L49.4583 31.878V31.878L48.4583 31.8829ZM14.5417 31.8829L15.5416 31.8879L14.5417 31.8829ZM0.5 31C0.5 48.1208 14.3792 62 31.5 62V60C15.4837 60 2.5 47.0163 2.5 31H0.5ZM31.5 0C14.3792 0 0.5 13.8792 0.5 31H2.5C2.5 14.9837 15.4837 2 31.5 2V0ZM62.5 31C62.5 13.8792 48.6208 0 31.5 0V2C47.5163 2 60.5 14.9837 60.5 31H62.5ZM31.5 62C48.6208 62 62.5 48.1208 62.5 31H60.5C60.5 47.0163 47.5163 60 31.5 60V62ZM31.5 14.9814C27.1712 14.9814 23.8706 15.2611 21.36 15.8253C18.8486 16.3897 17.0509 17.2558 15.8127 18.4867C14.5602 19.7317 13.9797 21.2506 13.7151 22.9134C13.4555 24.545 13.4894 26.3986 13.5218 28.346L15.5215 28.3127C15.4883 26.3141 15.4637 24.6512 15.6903 23.2277C15.9118 21.8354 16.3622 20.7605 17.2227 19.9051C18.0975 19.0355 19.495 18.2943 21.7985 17.7767C24.1029 17.2588 27.237 16.9814 31.5 16.9814V14.9814ZM49.4782 28.346C49.5106 26.3986 49.5445 24.545 49.2849 22.9134C49.0203 21.2506 48.4398 19.7317 47.1873 18.4867C45.9491 17.2558 44.1514 16.3897 41.64 15.8253C39.1294 15.2611 35.8288 14.9814 31.5 14.9814V16.9814C35.763 16.9814 38.8971 17.2588 41.2015 17.7767C43.505 18.2943 44.9025 19.0355 45.7773 19.9051C46.6378 20.7605 47.0882 21.8354 47.3097 23.2277C47.5363 24.6512 47.5117 26.3141 47.4785 28.3127L49.4782 28.346ZM49.454 30.5623C49.454 29.7998 49.4662 29.0633 49.4782 28.346L47.4785 28.3127C47.4666 29.0279 47.454 29.7806 47.454 30.5623H49.454ZM49.4583 31.878C49.4562 31.4449 49.454 31.007 49.454 30.5623H47.454C47.454 31.0128 47.4562 31.4556 47.4584 31.8879L49.4583 31.878ZM31.5 46.9815C40.0255 46.9815 44.7046 45.6122 47.1383 42.786C48.3617 41.3654 48.9359 39.6677 49.21 37.8351C49.4812 36.022 49.4688 33.991 49.4583 31.878L47.4584 31.8879C47.469 34.0432 47.4759 35.9086 47.232 37.5393C46.9911 39.1505 46.5159 40.4439 45.6228 41.4809C43.8239 43.5699 40.0027 44.9815 31.5 44.9815V46.9815ZM13.5417 31.878C13.5312 33.991 13.5188 36.022 13.79 37.8351C14.0641 39.6677 14.6383 41.3654 15.8617 42.786C18.2954 45.6122 22.9745 46.9815 31.5 46.9815V44.9815C22.9973 44.9815 19.1761 43.5699 17.3772 41.4809C16.4841 40.4439 16.009 39.1505 15.768 37.5393C15.5241 35.9086 15.531 34.0432 15.5416 31.8879L13.5417 31.878ZM13.546 30.5623C13.546 31.007 13.5438 31.4449 13.5417 31.878L15.5416 31.8879C15.5438 31.4556 15.546 31.0128 15.546 30.5623H13.546ZM13.5218 28.346C13.5338 29.0633 13.546 29.7998 13.546 30.5623H15.546C15.546 29.7806 15.5334 29.0279 15.5215 28.3127L13.5218 28.346Z" fill="#13C1AC"/>
<path fill-rule="evenodd" clip-rule="evenodd" d="M25.8458 31.7166C23.0024 29.4079 20.0264 26.4839 18.7476 25.1984C18.3364 24.7852 18.3357 24.1143 18.7458 23.7C19.1559 23.2862 19.8219 23.2851 20.2331 23.6986C24.5928 28.0806 30.1078 32.7868 31.3679 32.808C32.628 32.7751 37.9733 27.9835 42.1743 23.5288C42.5742 23.1047 43.2398 23.0877 43.6608 23.4906C44.0818 23.8936 44.099 24.5641 43.699 24.9883C42.4536 26.3088 39.5436 29.3219 36.7554 31.6865L42.3601 38.3393C42.7359 38.7853 42.6815 39.4538 42.2388 39.8324C42.0412 40.0015 41.7993 40.0841 41.5588 40.0841C41.2609 40.0841 40.9647 39.957 40.7565 39.7102L35.1108 33.0091C33.6023 34.1465 32.2468 34.9267 31.3675 34.9267C30.4822 34.9267 29.0828 34.1438 27.5183 33.0078L21.7953 39.6643C21.5875 39.9062 21.2945 40.0302 21 40.0302C20.7561 40.0302 20.5111 39.9451 20.312 39.7717C19.8731 39.3885 19.8255 38.7194 20.2058 38.2772L25.8458 31.7166Z" fill="#26C0AC"/>
</svg>

<svg width="63" height="62" fill="none" xmlns="http://www.w3.org/2000/svg"><path fill-rule="evenodd" clip-rule="evenodd" d="M31.5 61c-16.569 0-30-13.431-30-30 0-16.569 13.431-30 30-30 16.569 0 30 13.431 30 30 0 16.569-13.431 30-30 30ZM14.522 28.33C14.39 20.436 14.316 15.98 31.5 15.98s17.11 4.456 16.978 12.348c-.012.717-.024 1.461-.024 2.233 0 .448.002.888.004 1.32.043 8.537.07 14.1-16.958 14.1s-17-5.563-16.958-14.1c.002-.432.004-.872.004-1.32 0-.772-.012-1.516-.024-2.233Z" fill="#C1F5E6"/><path d="m14.522 28.33 1-.017-1 .016Zm33.956 0 1 .016-1-.017Zm-.02 3.553 1-.005-1 .005Zm-33.916 0 1 .005-1-.005ZM.5 31c0 17.12 13.88 31 31 31v-2c-16.016 0-29-12.984-29-29h-2Zm31-31C14.38 0 .5 13.88.5 31h2c0-16.016 12.984-29 29-29V0Zm31 31c0-17.12-13.88-31-31-31v2c16.016 0 29 12.984 29 29h2Zm-31 31c17.12 0 31-13.88 31-31h-2c0 16.016-12.984 29-29 29v2Zm0-47.019c-4.329 0-7.63.28-10.14.844-2.511.565-4.31 1.43-5.547 2.662-1.253 1.245-1.833 2.764-2.098 4.426-.26 1.632-.226 3.486-.193 5.433l2-.033c-.034-1.999-.058-3.662.168-5.085.222-1.393.672-2.468 1.533-3.323.875-.87 2.272-1.61 4.576-2.128s5.438-.796 9.701-.796v-2Zm17.978 13.365c.033-1.947.066-3.801-.193-5.433-.265-1.662-.845-3.181-2.098-4.426-1.238-1.231-3.036-2.097-5.547-2.662-2.51-.564-5.811-.844-10.14-.844v2c4.263 0 7.397.278 9.702.796 2.303.517 3.7 1.258 4.575 2.128.86.855 1.311 1.93 1.533 3.323.226 1.423.202 3.086.168 5.085l2 .033Zm-.024 2.216c0-.762.012-1.499.024-2.216l-2-.033c-.011.715-.024 1.468-.024 2.25h2Zm.004 1.316c-.002-.433-.004-.871-.004-1.316h-2c0 .45.002.894.004 1.326l2-.01ZM31.5 46.981c8.526 0 13.205-1.369 15.638-4.195 1.224-1.42 1.798-3.118 2.072-4.95.271-1.814.259-3.845.248-5.958l-2 .01c.011 2.155.018 4.02-.226 5.651-.24 1.611-.716 2.905-1.61 3.942-1.798 2.089-5.62 3.5-14.122 3.5v2ZM13.542 31.878c-.01 2.113-.023 4.144.248 5.957.274 1.833.848 3.53 2.072 4.951 2.433 2.826 7.112 4.195 15.638 4.195v-2c-8.503 0-12.324-1.411-14.123-3.5-.893-1.037-1.368-2.33-1.609-3.942-.244-1.63-.237-3.496-.226-5.651l-2-.01Zm.004-1.316c0 .445-.002.883-.004 1.316l2 .01c.002-.432.004-.875.004-1.326h-2Zm-.024-2.216c.012.717.024 1.454.024 2.216h2c0-.781-.013-1.534-.024-2.25l-2 .034Z" fill="#13C1AC"/><path fill-rule="evenodd" clip-rule="evenodd" d="M25.846 31.717c-2.844-2.31-5.82-5.233-7.098-6.519a1.065 1.065 0 0 1-.002-1.498 1.046 1.046 0 0 1 1.487-.001c4.36 4.382 9.875 9.088 11.135 9.109 1.26-.033 6.605-4.825 10.806-9.28a1.046 1.046 0 0 1 1.487-.037c.42.403.438 1.073.038 1.497-1.245 1.32-4.155 4.334-6.944 6.698l5.605 6.653a1.065 1.065 0 0 1-.121 1.493 1.042 1.042 0 0 1-1.482-.122l-5.646-6.7c-1.509 1.137-2.864 1.917-3.743 1.917-.886 0-2.285-.783-3.85-1.92l-5.723 6.657a1.046 1.046 0 0 1-1.483.108 1.065 1.065 0 0 1-.106-1.495l5.64-6.56Z" fill="#26C0AC"/></svg>
